source/img/icon/icon-advantages-3.svg

<svg width="86" height="84" viewBox="0 0 86 84" fill="none" xmlns="http://www.w3.org/2000/svg">
<path opacity="0.8" d="M26.1662 1.40002H60.3612C63.5086 1.40002 66.0604 3.90745 66.0604 7.00002V12.6H20.467V7.00002C20.467 3.90745 23.0189 1.40002 26.1662 1.40002Z" fill="#27ACE2"/>
<path opacity="0.8" d="M20.467 68.6H66.0604V77C66.0604 80.0925 63.5086 82.6 60.3612 82.6H26.1662C23.0189 82.6 20.467 80.0925 20.467 77V68.6Z" fill="#27ACE2"/>
<path d="M21.8918 14H58.9364V11.2H21.8918V7C21.8918 4.68057 23.8057 2.8 26.1662 2.8H60.3612C62.7217 2.8 64.6356 4.68057 64.6356 7V19.6H67.4852V7C67.4803 3.13564 64.294 0.00478517 60.3612 0H26.1662C22.2334 0.00478517 19.0471 3.13564 19.0422 7V25.2H21.8918V14Z" fill="#0060AA"/>
<path d="M64.6356 67.2H27.591V70H64.6356V77C64.6356 79.3194 62.7217 81.2 60.3612 81.2H26.1662C23.8057 81.2 21.8918 79.3194 21.8918 77V67.2H19.0422V77C19.0471 80.8643 22.2334 83.9952 26.1662 84H60.3612C64.294 83.9952 67.4803 80.8643 67.4852 77V61.6H64.6356V67.2Z" fill="#0060AA"/>
<path d="M41.8389 74.2H44.6884V77H41.8389V74.2Z" fill="#0060AA"/>
<path d="M31.8652 5.60004H34.7148V8.40004H31.8652V5.60004Z" fill="#0060AA"/>
<path d="M37.5645 5.60004H40.414V8.40004H37.5645V5.60004Z" fill="#0060AA"/>
<path d="M24.7415 18.2V23.8H27.591V19.6H31.8654V16.8H26.1662C25.3794 16.8 24.7415 17.4268 24.7415 18.2Z" fill="#0060AA"/>
<g opacity="0.8">
<path d="M58.9709 43C58.9709 51.068 52.3144 57.6087 44.1035 57.6087C35.8926 57.6087 29.2361 51.068 29.2361 43C29.2361 34.932 35.8926 28.3913 44.1035 28.3913C52.3144 28.3913 58.9709 34.932 58.9709 43Z" fill="#27ACE2"/>
</g>
<path d="M44.1033 22C32.3189 22 22.7314 31.4198 22.7314 43C22.7314 54.5802 32.3189 64 44.1033 64C55.8886 64 65.4752 54.5802 65.4752 43C65.4752 31.4198 55.8886 22 44.1033 22ZM44.1033 62.1739C33.343 62.1739 24.5899 53.5722 24.5899 43C24.5899 32.4278 33.343 23.8261 44.1033 23.8261C54.8628 23.8261 63.6168 32.4278 63.6168 43C63.6168 53.5722 54.8628 62.1739 44.1033 62.1739Z" fill="#0060AA" stroke="#0060AA"/>
<path d="M44.1033 56.6957C43.5906 56.6957 43.1741 57.1036 43.1741 57.6087C43.1741 58.1138 43.5906 58.5218 44.1033 58.5218C52.8137 58.5218 59.8999 51.5589 59.8999 43C59.8999 42.4949 59.4847 42.087 58.9707 42.087C58.4566 42.087 58.0415 42.4949 58.0415 43C58.0415 50.5518 51.7888 56.6957 44.1033 56.6957Z" fill="#0060AA"/>
<path d="M44.1035 29.3044C44.6162 29.3044 45.0327 28.8964 45.0327 28.3913C45.0327 27.8862 44.6162 27.4783 44.1035 27.4783C35.393 27.4783 28.3069 34.4411 28.3069 43C28.3069 43.5051 28.7234 43.9131 29.2361 43.9131C29.7488 43.9131 30.1653 43.5051 30.1653 43C30.1653 35.4482 36.418 29.3044 44.1035 29.3044Z" fill="#0060AA"/>
<path d="M44.1033 32.9565C43.5906 32.9565 43.1741 33.3645 43.1741 33.8696V43C43.1741 43.5051 43.5906 43.9131 44.1033 43.9131H53.3954C53.9095 43.9131 54.3246 43.5051 54.3246 43C54.3246 42.4949 53.9095 42.087 53.3954 42.087H45.0325V33.8696C45.0325 33.3645 44.616 32.9565 44.1033 32.9565Z" fill="#0060AA"/>
<path d="M34.2472 51.3935L32.9369 52.6801C32.5735 53.0363 32.5735 53.6141 32.9369 53.9712C33.1184 54.1491 33.357 54.2387 33.5948 54.2387C33.8325 54.2387 34.0707 54.1491 34.2517 53.9712L35.5621 52.6846C35.9255 52.3284 35.9255 51.7506 35.5621 51.3935C35.1987 51.0377 34.6106 51.0377 34.2472 51.3935Z" fill="#0060AA" stroke="#0060AA"/>
<path d="M53.3026 34.874C53.5403 34.874 53.7785 34.7844 53.9596 34.6065L55.269 33.3199C55.6324 32.9628 55.6324 32.3859 55.269 32.0288C54.9056 31.6716 54.3185 31.6716 53.955 32.0288L52.6456 33.3154C52.2822 33.6725 52.2822 34.2494 52.6456 34.6065C52.828 34.7844 53.0658 34.874 53.3026 34.874Z" fill="#0060AA" stroke="#0060AA"/>
</svg>

<svg width="86" height="84" fill="none" xmlns="http://www.w3.org/2000/svg"><path opacity=".8" d="M26.166 1.4h34.195c3.148 0 5.7 2.507 5.7 5.6v5.6H20.466V7c0-3.093 2.552-5.6 5.7-5.6zm-5.699 67.2H66.06V77c0 3.093-2.551 5.6-5.699 5.6H26.166c-3.147 0-5.699-2.507-5.699-5.6v-8.4z" fill="#27ACE2"/><path d="M21.892 14h37.044v-2.8H21.892V7c0-2.32 1.914-4.2 4.274-4.2h34.195c2.36 0 4.275 1.88 4.275 4.2v12.6h2.85V7C67.48 3.136 64.293.005 60.36 0H26.166c-3.933.005-7.119 3.136-7.124 7v18.2h2.85V14zm42.744 53.2H27.59V70h37.045v7c0 2.32-1.914 4.2-4.275 4.2H26.166c-2.36 0-4.274-1.88-4.274-4.2v-9.8h-2.85V77c.005 3.864 3.191 6.995 7.124 7h34.195c3.933-.005 7.12-3.136 7.124-7V61.6h-2.85v5.6z" fill="#0060AA"/><path d="M41.839 74.2h2.85V77h-2.85v-2.8zM31.865 5.6h2.85v2.8h-2.85V5.6zm5.7 0h2.849v2.8h-2.85V5.6zM24.741 18.2v5.6h2.85v-4.2h4.274v-2.8h-5.699c-.787 0-1.425.627-1.425 1.4z" fill="#0060AA"/><path d="M58.97 43c0 8.068-6.656 14.609-14.867 14.609-8.21 0-14.867-6.541-14.867-14.609s6.657-14.609 14.867-14.609c8.211 0 14.868 6.541 14.868 14.609z" fill="#27ACE2" opacity=".8"/><path d="M44.103 22c-11.784 0-21.372 9.42-21.372 21s9.588 21 21.372 21c11.786 0 21.372-9.42 21.372-21S55.89 22 44.103 22zm0 40.174c-10.76 0-19.513-8.602-19.513-19.174s8.753-19.174 19.513-19.174c10.76 0 19.514 8.602 19.514 19.174s-8.754 19.174-19.514 19.174z" fill="#0060AA" stroke="#0060AA"/><path d="M44.103 56.696a.921.921 0 0 0-.929.913c0 .505.417.913.93.913 8.71 0 15.796-6.963 15.796-15.522a.92.92 0 0 0-.93-.913.92.92 0 0 0-.928.913c0 7.552-6.253 13.696-13.939 13.696zm0-27.392c.513 0 .93-.408.93-.913a.921.921 0 0 0-.93-.913c-8.71 0-15.796 6.963-15.796 15.522a.92.92 0 0 0 .93.913.92.92 0 0 0 .928-.913c0-7.552 6.253-13.696 13.938-13.696zm0 3.652a.921.921 0 0 0-.929.914V43c0 .505.417.913.93.913h9.291a.92.92 0 0 0 .93-.913.92.92 0 0 0-.93-.913h-8.363V33.87a.921.921 0 0 0-.929-.913z" fill="#0060AA"/><path d="M34.247 51.394l-1.31 1.286a.9.9 0 0 0 0 1.291.939.939 0 0 0 1.315 0l1.31-1.286a.9.9 0 0 0 0-1.291.943.943 0 0 0-1.315 0zm19.056-16.52c.237 0 .476-.09.657-.268l1.309-1.286a.9.9 0 0 0 0-1.291.94.94 0 0 0-1.314 0l-1.31 1.286a.9.9 0 0 0 0 1.291.94.94 0 0 0 .658.268z" fill="#0060AA" stroke="#0060AA"/></svg>
